24x24/apps/com.github.ztefn.haguichi.svg

<svg height="24" width="24" xmlns="http://www.w3.org/2000/svg"><g transform="translate(1 1)"><rect fill="#ff4646" height="20" rx="1" transform="matrix(0 -1 -1 0 0 0)" width="20" x="-21" y="-21"/><path d="m2 1c-.554 0-1 .446-1 1v.5c0-.554.446-1 1-1h18c.554 0 1 .446 1 1v-.5c0-.554-.446-1-1-1z" fill="#fff" opacity=".2"/><path d="m2 21.5c-.554 0-1-.446-1-1v-.5c0 .554.446 1 1 1h18c.554 0 1-.446 1-1v.5c0 .554-.446 1-1 1zm10.017-3h4.483l-6-6.5-2.5 1.948z" opacity=".2"/><path d="m12 4.5h4.5l-8.5 9.456-2.5-2.456z" opacity=".2"/><path d="m12.017 18h4.483l-6-6.5-2.5 1.948z" fill="#ffabab"/><path d="m12 4h4.5l-8.5 9.456-2.5-2.456z" fill="#fff"/></g></svg>

<svg height="24" width="24" xmlns="http://www.w3.org/2000/svg">
    <g transform="translate(1 1)">
        <rect fill="#ff4646" height="20" rx="1" transform="matrix(0 -1 -1 0 0 0)" width="20" x="-21" y="-21"/>
        <path d="M2 1c-.554 0-1 .446-1 1v.5c0-.554.446-1 1-1h18c.554 0 1 .446 1 1V2c0-.554-.446-1-1-1z" fill="#f4f4f7" opacity=".2"/>
        <path d="M2 21.5c-.554 0-1-.446-1-1V20c0 .554.446 1 1 1h18c.554 0 1-.446 1-1v.5c0 .554-.446 1-1 1zm10.017-3H16.5l-6-6.5L8 13.948z" opacity=".2"/>
        <path d="M12 4.5h4.5L8 13.956 5.5 11.5z" opacity=".2"/>
        <path d="M12.017 18H16.5l-6-6.5L8 13.448z" fill="#ffabab"/>
        <path d="M12 4h4.5L8 13.456 5.5 11z" fill="#f4f4f7"/>
    </g>
</svg>
